Amon/img/main/line.svg

<svg width="495" height="394" fill="none" xmlns="http://www.w3.org/2000/svg"><path opacity=".3" d="M219.679 1c-74.071 91.5 99.412 123.607 238.259 183.41 41.142 17.72 45.067 46.997 1.762 64.706-93.124 38.083-446.205-17.318-423.808 32.883 23.131 51.848 321.644 124.39 335.101 129.352 118.147 43.564 156.626 154.086 91.555 214.681-46.301 43.116-353.278 28.583-449.841 14.224-632.354-94.026-347.411-82.814-1057.737-112.012-54.38-2.236-111.37-3.379-163.59 3.836-53.79 7.431-52.08 37.914-34.03 54.395 59.81 54.614 327.566 147.249 255.511 219.039-22.111 22.028-73.921 35.941-97.251 57.71-18.27 17.051-16.25 37.184-24.37 55.776" stroke="#fff" stroke-width="2" stroke-dasharray="10 10"/></svg>

<svg width="495" height="394" viewBox="0 0 495 394" fill="none" xmlns="http://www.w3.org/2000/svg">
<path opacity="0.3" d="M219.679 1C145.608 92.4991 319.091 124.607 457.938 184.41C499.08 202.13 503.005 231.407 459.7 249.116C366.576 287.199 13.4953 231.798 35.892 281.999C59.0233 333.847 357.536 406.389 370.993 411.351C489.14 454.915 527.619 565.437 462.548 626.032C416.247 669.148 109.27 654.615 12.7068 640.256C-619.647 546.23 -334.704 557.442 -1045.03 528.244C-1099.41 526.008 -1156.4 524.865 -1208.62 532.08C-1262.41 539.511 -1260.7 569.994 -1242.65 586.475C-1182.84 641.089 -915.084 733.724 -987.139 805.514C-1009.25 827.542 -1061.06 841.455 -1084.39 863.224C-1102.66 880.275 -1100.64 900.408 -1108.76 919" stroke="white" stroke-width="2" stroke-dasharray="10 10"/>
</svg>
